src/assets/user_avatars/volunteer-icon.svg

<svg fill="none" height="80" viewBox="0 0 80 80" width="80" xmlns="http://www.w3.org/2000/svg" xmlns:xlink="http://www.w3.org/1999/xlink"><mask id="a" height="80" maskUnits="userSpaceOnUse" width="80" x="0" y="0"><path d="m40 80c22.0925 0 40-17.9075 40-40s-17.9075-40-40-40-40 17.9075-40 40 17.9075 40 40 40z" fill="#fedf85"/></mask><path d="m40 80c22.0925 0 40-17.9075 40-40s-17.9075-40-40-40-40 17.9075-40 40 17.9075 40 40 40z" fill="#fedf85"/><g mask="url(#a)"><path d="m65.8155 41.9843h-48.8155v48.0019h48.8155z" fill="#76e5fd" stroke="#000" stroke-miterlimit="10" stroke-width="2"/><path d="m44.5488 63.9007s-.6934 2.5267-3.7401 2.5267c-3.0468 0-3.7402-2.5267-3.7402-2.5267" fill="#76e5fd"/><path d="m44.5488 63.9007s-.6934 2.5267-3.7401 2.5267c-3.0468 0-3.7402-2.5267-3.7402-2.5267" stroke="#000" stroke-linecap="round" stroke-linejoin="round" stroke-miterlimit="10" stroke-width="2"/><path d="m48.168 59.1281s.492-1.7942 2.6584-1.7942 2.6584 1.7942 2.6584 1.7942" fill="#76e5fd"/><path d="m48.168 59.1281s.492-1.7942 2.6584-1.7942 2.6584 1.7942 2.6584 1.7942" stroke="#000" stroke-linecap="round" stroke-linejoin="round" stroke-miterlimit="10" stroke-width="2"/><path d="m28.7108 59.1281s.492-1.7942 2.6584-1.7942 2.6584 1.7942 2.6584 1.7942" fill="#76e5fd"/><g stroke="#000" stroke-width="2"><path d="m28.7108 59.1281s.492-1.7942 2.6584-1.7942 2.6584 1.7942 2.6584 1.7942" stroke-linecap="round" stroke-linejoin="round" stroke-miterlimit="10"/><path d="m65.8155 40.9455v2.4797c0 .5523-.4478 1-1 1h-46.8155c-.5523 0-1-.4477-1-1v-2.4038c0-1.8193 1.0022-3.4747 2.5229-4.4733 7.3128-4.8023 12.3729-11.5204 13.8972-15.0513.1698-.3935.5468-.6657.9754-.6657h13.4454c.507 0 .9297.3821 1.0891.8634 1.3764 4.1567 8.8877 10.9815 14.4676 14.8293 1.4644 1.0097 2.4179 2.643 2.4179 4.4217z" fill="#343440" stroke-linecap="square"/><path d="m34.0854 8.399v11.432c0 .5523.4477 1 1 1h11.831c.5523 0 1-.4477 1-1v-7.3845c0-.4276-.2718-.8078-.6763-.9462l-11.831-4.04746c-.649-.22201-1.3237.26029-1.3237.94616z" fill="#76e5fd" stroke-linecap="square"/></g></g></svg>

<svg width="80" height="80" viewBox="0 0 80 80" fill="none" xmlns="http://www.w3.org/2000/svg">
<path d="M40 80C62.0925 80 80 62.0925 80 40C80 17.9075 62.0925 0 40 0C17.9075 0 0 17.9075 0 40C0 62.0925 17.9075 80 40 80Z" fill="#FEDF85"/>
<mask id="mask0_2955_152" style="mask-type:alpha" maskUnits="userSpaceOnUse" x="0" y="0" width="80" height="80">
<path d="M40 80C62.0925 80 80 62.0925 80 40C80 17.9075 62.0925 0 40 0C17.9075 0 0 17.9075 0 40C0 62.0925 17.9075 80 40 80Z" fill="#FEDF85"/>
</mask>
<g mask="url(#mask0_2955_152)">
<path d="M65.8155 41.9843H17V89.9862H65.8155V41.9843Z" fill="#76E5FD" stroke="black" stroke-width="2" stroke-miterlimit="10"/>
<path d="M44.5488 63.9007C44.5488 63.9007 43.8554 66.4274 40.8087 66.4274C37.7619 66.4274 37.0685 63.9007 37.0685 63.9007" fill="#76E5FD"/>
<path d="M44.5488 63.9007C44.5488 63.9007 43.8554 66.4274 40.8087 66.4274C37.7619 66.4274 37.0685 63.9007 37.0685 63.9007" stroke="black" stroke-width="2" stroke-miterlimit="10" stroke-linecap="round" stroke-linejoin="round"/>
<path d="M48.168 59.1281C48.168 59.1281 48.66 57.3339 50.8264 57.3339C52.9928 57.3339 53.4848 59.1281 53.4848 59.1281" fill="#76E5FD"/>
<path d="M48.168 59.1281C48.168 59.1281 48.66 57.3339 50.8264 57.3339C52.9928 57.3339 53.4848 59.1281 53.4848 59.1281" stroke="black" stroke-width="2" stroke-miterlimit="10" stroke-linecap="round" stroke-linejoin="round"/>
<path d="M28.7108 59.1281C28.7108 59.1281 29.2028 57.3339 31.3692 57.3339C33.5356 57.3339 34.0276 59.1281 34.0276 59.1281" fill="#76E5FD"/>
<path d="M28.7108 59.1281C28.7108 59.1281 29.2028 57.3339 31.3692 57.3339C33.5356 57.3339 34.0276 59.1281 34.0276 59.1281" stroke="black" stroke-width="2" stroke-miterlimit="10" stroke-linecap="round" stroke-linejoin="round"/>
<path d="M65.8155 40.9455V43.4252C65.8155 43.9775 65.3677 44.4252 64.8155 44.4252H18C17.4477 44.4252 17 43.9775 17 43.4252V41.0214C17 39.2021 18.0022 37.5467 19.5229 36.5481C26.8357 31.7458 31.8958 25.0277 33.4201 21.4968C33.5899 21.1033 33.9669 20.8311 34.3955 20.8311H47.8409C48.3479 20.8311 48.7706 21.2132 48.93 21.6945C50.3064 25.8512 57.8177 32.676 63.3976 36.5238C64.862 37.5335 65.8155 39.1668 65.8155 40.9455Z" fill="#343440" stroke="black" stroke-width="2" stroke-linecap="square"/>
<path d="M34.0854 8.399V19.831C34.0854 20.3833 34.5331 20.831 35.0854 20.831H46.9164C47.4687 20.831 47.9164 20.3833 47.9164 19.831V12.4465C47.9164 12.0189 47.6446 11.6387 47.2401 11.5003L35.4091 7.45284C34.7601 7.23083 34.0854 7.71313 34.0854 8.399Z" fill="#76E5FD" stroke="black" stroke-width="2" stroke-linecap="square"/>
</g>
</svg>
